static/images/tech-icons/dark/firebase.svg

<svg height="44" viewBox="0 0 127 44" width="127" xmlns="http://www.w3.org/2000/svg"><g><g transform="translate(.4 7)"><path d="m.92 23.18 3.48-22.3c.12-.76 1.14-.94 1.5-.26l3.74 7zm24.74 5.42-3.32-20.54c-.1-.64-.9-.9-1.36-.44l-20.92 20.98 11.58 6.5c.72.4 1.62.4 2.34 0zm-9.4-17.92-2.68-5.1c-.3-.58-1.12-.58-1.42 0l-11.78 21z"/><g transform="translate(36 9.2)"><path d="m2.46 18.6h-2.36v-18.32h10.7v2.26h-8.34v6.02h7.54v2.2h-7.52v7.84z"/><path d="m14.86 2.92c-.32.32-.72.48-1.18.48s-.86-.16-1.18-.48-.48-.72-.48-1.18.16-.86.48-1.18.72-.48 1.18-.48.86.16 1.18.48.48.72.48 1.18-.16.84-.48 1.18zm0 15.68h-2.36v-12.54h2.36z"/><path d="m19.78 18.6h-2.36v-12.54h2.26v2.04h.1c.24-.68.72-1.24 1.48-1.68.74-.44 1.46-.66 2.16-.66s1.28.1 1.76.3l-.9 2.2c-.3-.12-.72-.18-1.26-.18-.86 0-1.6.34-2.26 1.02s-.98 1.56-.98 2.64z"/><path d="m30.86 19.02c-1.9 0-3.44-.64-4.62-1.9s-1.78-2.86-1.78-4.78c0-1.82.58-3.4 1.72-4.72 1.16-1.32 2.62-1.98 4.42-1.98 1.86 0 3.34.6 4.46 1.82s1.68 2.84 1.68 4.86l-.02.44h-9.9c.06 1.26.5 2.26 1.26 3 .78.74 1.68 1.1 2.72 1.1 1.68 0 2.84-.72 3.44-2.16l2.1.88c-.4.98-1.08 1.78-2.02 2.44s-2.1 1-3.46 1zm3.38-8.2c-.06-.72-.38-1.4-.98-2.04s-1.5-.98-2.7-.98c-.88 0-1.62.28-2.26.82s-1.08 1.28-1.32 2.2z"/><path d="m45.02 19.02c-.96 0-1.82-.2-2.58-.62-.76-.4-1.32-.92-1.7-1.54h-.1v1.74h-2.26v-18.32h2.36v5.78l-.1 1.74h.1c.38-.62.94-1.12 1.7-1.54.76-.4 1.62-.62 2.58-.62 1.62 0 3.02.64 4.2 1.92s1.76 2.86 1.76 4.76-.58 3.48-1.76 4.76c-1.18 1.3-2.58 1.94-4.2 1.94zm-.4-2.16c1.1 0 2.04-.42 2.82-1.24s1.18-1.92 1.18-3.28-.4-2.46-1.18-3.28-1.72-1.24-2.82-1.24-2.06.4-2.82 1.22-1.16 1.92-1.16 3.3.38 2.48 1.16 3.3 1.72 1.22 2.82 1.22z"/><path d="m56.84 19.02c-1.34 0-2.44-.38-3.34-1.16-.9-.76-1.34-1.78-1.34-3.04 0-1.36.52-2.44 1.58-3.22s2.36-1.16 3.92-1.16c1.38 0 2.52.26 3.4.76v-.36c0-.92-.32-1.66-.94-2.22-.64-.56-1.4-.84-2.32-.84-.68 0-1.3.16-1.86.48s-.94.76-1.14 1.34l-2.16-.92c.3-.76.86-1.44 1.72-2.08s1.98-.96 3.38-.96c1.6 0 2.94.46 4 1.4s1.58 2.26 1.58 3.96v7.6h-2.26v-1.74h-.1c-.94 1.44-2.32 2.16-4.12 2.16zm.38-2.16c.98 0 1.86-.36 2.64-1.08.8-.72 1.2-1.58 1.2-2.58-.66-.54-1.66-.82-3-.82-1.14 0-2 .24-2.58.74s-.88 1.08-.88 1.74c0 .62.26 1.1.8 1.46s1.14.54 1.82.54z"/><path d="m69.86 19.02c-1.4 0-2.56-.34-3.46-1.02-.92-.68-1.58-1.54-2-2.56l2.1-.88c.66 1.58 1.8 2.36 3.4 2.36.74 0 1.34-.16 1.8-.48s.7-.76.7-1.28c0-.82-.58-1.38-1.72-1.66l-2.54-.62c-.8-.2-1.56-.6-2.28-1.16-.72-.58-1.08-1.34-1.08-2.32 0-1.1.5-2 1.48-2.7s2.14-1.04 3.5-1.04c1.1 0 2.1.26 2.96.76.88.5 1.5 1.22 1.86 2.16l-2.04.84c-.46-1.1-1.42-1.66-2.86-1.66-.7 0-1.28.14-1.76.44s-.72.68-.72 1.18c0 .72.56 1.2 1.66 1.46l2.48.58c1.18.28 2.04.74 2.62 1.4.56.66.84 1.42.84 2.26 0 1.12-.46 2.06-1.38 2.82s-2.1 1.12-3.56 1.12z"/><path d="m82.16 19.02c-1.9 0-3.44-.64-4.62-1.9s-1.78-2.86-1.78-4.78c0-1.82.58-3.4 1.72-4.72 1.16-1.32 2.62-1.98 4.42-1.98 1.86 0 3.34.6 4.46 1.82s1.68 2.84 1.68 4.86l-.02.44h-9.9c.06 1.26.5 2.26 1.26 3 .78.74 1.68 1.1 2.72 1.1 1.68 0 2.84-.72 3.44-2.16l2.1.88c-.4.98-1.08 1.78-2.02 2.44s-2.1 1-3.46 1zm3.38-8.2c-.06-.72-.38-1.4-.98-2.04s-1.5-.98-2.7-.98c-.88 0-1.62.28-2.26.82s-1.08 1.28-1.32 2.2z"/></g></g><g transform="translate(36.2 .6)"><path d="m.14 8.84v-8.6h3.1c.68 0 1.26.22 1.74.66.5.44.74 1 .74 1.68 0 .4-.1.76-.32 1.08s-.5.54-.84.7v.04c.42.14.78.4 1.04.74.28.36.4.76.4 1.22 0 .7-.26 1.28-.78 1.76-.52.46-1.12.7-1.82.7h-3.26zm1.1-4.9h2c.42 0 .76-.14 1-.42.26-.28.38-.58.38-.9s-.12-.62-.36-.9-.56-.4-.96-.4h-2.06zm0 3.86h2.22c.42 0 .76-.14 1.04-.44.26-.3.4-.62.4-.98s-.14-.68-.4-.96c-.28-.3-.62-.44-1.06-.44h-2.18v2.82z"/><path d="m12.5 8.84h-1.06v-.82h-.04c-.16.28-.42.52-.76.72s-.7.3-1.1.3c-.74 0-1.3-.22-1.68-.68-.38-.44-.58-1.04-.58-1.8v-3.6h1.1v3.42c0 1.1.48 1.64 1.46 1.64.46 0 .82-.18 1.12-.56.28-.36.44-.8.44-1.28v-3.22h1.1z"/><path d="m15.18 1.5c-.16.16-.34.22-.56.22s-.4-.08-.56-.22c-.16-.16-.22-.34-.22-.56s.08-.4.22-.56c.16-.16.34-.22.56-.22s.4.08.56.22c.16.16.22.34.22.56s-.08.4-.22.56zm0 7.34h-1.1v-5.88h1.1z"/><path d="m17.84 8.84h-1.1v-8.6h1.1z"/><path d="m21.78 8.94c-.62 0-1.08-.16-1.4-.5-.32-.32-.48-.8-.48-1.4v-3.06h-1.04v-1h1.04v-1.8h1.1v1.8h1.44v1h-1.44v3c0 .64.26.96.8.96.2 0 .36-.04.5-.1l.38.94c-.26.12-.56.16-.9.16z"/><path d="m33.26 8.84h-1.12l-1.46-4.52-1.46 4.52h-1.12l-1.9-5.88h1.16l1.3 4.44h.02l1.46-4.44h1.14l1.46 4.44h.02l1.3-4.44h1.12z"/><path d="m37.22 1.5c-.16.16-.34.22-.56.22s-.4-.08-.56-.22c-.16-.16-.22-.34-.22-.56s.08-.4.22-.56c.16-.16.34-.22.56-.22s.4.08.56.22c.16.16.22.34.22.56s-.08.4-.22.56zm0 7.34h-1.1v-5.88h1.1z"/><path d="m41.2 8.94c-.62 0-1.08-.16-1.42-.5-.32-.32-.48-.8-.48-1.4v-3.06h-1.04v-1h1.04v-1.8h1.1v1.8h1.44v1h-1.44v3c0 .64.26.96.8.96.2 0 .36-.04.5-.1l.38.94c-.24.12-.52.16-.88.16z"/><path d="m44.14.26v2.72l-.04.82h.04c.16-.28.42-.52.76-.72s.72-.3 1.1-.3c.72 0 1.28.22 1.66.68.38.44.58 1.04.58 1.8v3.6h-1.1v-3.44c0-1.08-.48-1.64-1.46-1.64-.46 0-.82.18-1.12.54-.28.36-.44.78-.44 1.26v3.26h-1.1v-8.6h1.12z"/></g></g></svg>

<?xml version="1.0" encoding="UTF-8"?>
<svg width="127px" height="44px" viewBox="0 0 127 44" version="1.1" xmlns="http://www.w3.org/2000/svg" xmlns:xlink="http://www.w3.org/1999/xlink">
    <title>firebase</title>
    <g id="Racing-post,-Zopa" stroke="none" stroke-width="1" fill="none" fill-rule="evenodd">
        <g id="Artboard" transform="translate(0.000000, -1.000000)" fill="#000000" fill-rule="nonzero">
            <g id="firebase" transform="translate(0.200000, 1.600000)">
                <g id="Layer_1" transform="translate(0.200000, 0.000000)">
                    <g id="Group" transform="translate(0.000000, 6.400000)">
                        <path d="M0.92,23.18 L4.4,0.88 C4.52,0.12 5.54,-0.06 5.9,0.62 L9.64,7.62 L0.92,23.18 Z M25.66,28.6 L22.34,8.06 C22.24,7.42 21.44,7.16 20.98,7.62 L0.06,28.6 L11.64,35.1 C12.36,35.5 13.26,35.5 13.98,35.1 L25.66,28.6 Z M16.26,10.68 L13.58,5.58 C13.28,5 12.46,5 12.16,5.58 L0.38,26.58 L16.26,10.68 Z" id="icon_1_"></path>
                        <g transform="translate(36.000000, 9.200000)">
                            <polygon id="Path" points="2.46 18.6 0.1 18.6 0.1 0.28 10.8 0.28 10.8 2.54 2.46 2.54 2.46 8.56 10 8.56 10 10.76 2.48 10.76 2.48 18.6"></polygon>
                            <path d="M14.86,2.92 C14.54,3.24 14.14,3.4 13.68,3.4 C13.22,3.4 12.82,3.24 12.5,2.92 C12.18,2.6 12.02,2.2 12.02,1.74 C12.02,1.28 12.18,0.88 12.5,0.56 C12.82,0.24 13.22,0.08 13.68,0.08 C14.14,0.08 14.54,0.24 14.86,0.56 C15.18,0.88 15.34,1.28 15.34,1.74 C15.34,2.2 15.18,2.58 14.86,2.92 Z M14.86,18.6 L12.5,18.6 L12.5,6.06 L14.86,6.06 L14.86,18.6 Z" id="Shape"></path>
                            <path d="M19.78,18.6 L17.42,18.6 L17.42,6.06 L19.68,6.06 L19.68,8.1 L19.78,8.1 C20.02,7.42 20.5,6.86 21.26,6.42 C22,5.98 22.72,5.76 23.42,5.76 C24.12,5.76 24.7,5.86 25.18,6.06 L24.28,8.26 C23.98,8.14 23.56,8.08 23.02,8.08 C22.16,8.08 21.42,8.42 20.76,9.1 C20.1,9.78 19.78,10.66 19.78,11.74 L19.78,18.6 Z" id="Path"></path>
                            <path d="M30.86,19.02 C28.96,19.02 27.42,18.38 26.24,17.12 C25.06,15.86 24.46,14.26 24.46,12.34 C24.46,10.52 25.04,8.94 26.18,7.62 C27.34,6.3 28.8,5.64 30.6,5.64 C32.46,5.64 33.94,6.24 35.06,7.46 C36.18,8.68 36.74,10.3 36.74,12.32 L36.72,12.76 L26.82,12.76 C26.88,14.02 27.32,15.02 28.08,15.76 C28.86,16.5 29.76,16.86 30.8,16.86 C32.48,16.86 33.64,16.14 34.24,14.7 L36.34,15.58 C35.94,16.56 35.26,17.36 34.32,18.02 C33.38,18.68 32.22,19.02 30.86,19.02 Z M34.24,10.82 C34.18,10.1 33.86,9.42 33.26,8.78 C32.66,8.14 31.76,7.8 30.56,7.8 C29.68,7.8 28.94,8.08 28.3,8.62 C27.66,9.16 27.22,9.9 26.98,10.82 L34.24,10.82 Z" id="Shape"></path>
                            <path d="M45.02,19.02 C44.06,19.02 43.2,18.82 42.44,18.4 C41.68,18 41.12,17.48 40.74,16.86 L40.64,16.86 L40.64,18.6 L38.38,18.6 L38.38,0.28 L40.74,0.28 L40.74,6.06 L40.64,7.8 L40.74,7.8 C41.12,7.18 41.68,6.68 42.44,6.26 C43.2,5.86 44.06,5.64 45.02,5.64 C46.64,5.64 48.04,6.28 49.22,7.56 C50.4,8.84 50.98,10.42 50.98,12.32 C50.98,14.22 50.4,15.8 49.22,17.08 C48.04,18.38 46.64,19.02 45.02,19.02 Z M44.62,16.86 C45.72,16.86 46.66,16.44 47.44,15.62 C48.22,14.8 48.62,13.7 48.62,12.34 C48.62,10.98 48.22,9.88 47.44,9.06 C46.66,8.24 45.72,7.82 44.62,7.82 C43.52,7.82 42.56,8.22 41.8,9.04 C41.04,9.86 40.64,10.96 40.64,12.34 C40.64,13.72 41.02,14.82 41.8,15.64 C42.58,16.46 43.52,16.86 44.62,16.86 Z" id="Shape"></path>
                            <path d="M56.84,19.02 C55.5,19.02 54.4,18.64 53.5,17.86 C52.6,17.1 52.16,16.08 52.16,14.82 C52.16,13.46 52.68,12.38 53.74,11.6 C54.8,10.82 56.1,10.44 57.66,10.44 C59.04,10.44 60.18,10.7 61.06,11.2 L61.06,10.84 C61.06,9.92 60.74,9.18 60.12,8.62 C59.48,8.06 58.72,7.78 57.8,7.78 C57.12,7.78 56.5,7.94 55.94,8.26 C55.38,8.58 55,9.02 54.8,9.6 L52.64,8.68 C52.94,7.92 53.5,7.24 54.36,6.6 C55.22,5.96 56.34,5.64 57.74,5.64 C59.34,5.64 60.68,6.1 61.74,7.04 C62.8,7.98 63.32,9.3 63.32,11 L63.32,18.6 L61.06,18.6 L61.06,16.86 L60.96,16.86 C60.02,18.3 58.64,19.02 56.84,19.02 Z M57.22,16.86 C58.2,16.86 59.08,16.5 59.86,15.78 C60.66,15.06 61.06,14.2 61.06,13.2 C60.4,12.66 59.4,12.38 58.06,12.38 C56.92,12.38 56.06,12.62 55.48,13.12 C54.9,13.62 54.6,14.2 54.6,14.86 C54.6,15.48 54.86,15.96 55.4,16.32 C55.94,16.68 56.54,16.86 57.22,16.86 Z" id="Shape"></path>
                            <path d="M69.86,19.02 C68.46,19.02 67.3,18.68 66.4,18 C65.48,17.32 64.82,16.46 64.4,15.44 L66.5,14.56 C67.16,16.14 68.3,16.92 69.9,16.92 C70.64,16.92 71.24,16.76 71.7,16.44 C72.16,16.12 72.4,15.68 72.4,15.16 C72.4,14.34 71.82,13.78 70.68,13.5 L68.14,12.88 C67.34,12.68 66.58,12.28 65.86,11.72 C65.14,11.14 64.78,10.38 64.78,9.4 C64.78,8.3 65.28,7.4 66.26,6.7 C67.24,6 68.4,5.66 69.76,5.66 C70.86,5.66 71.86,5.92 72.72,6.42 C73.6,6.92 74.22,7.64 74.58,8.58 L72.54,9.42 C72.08,8.32 71.12,7.76 69.68,7.76 C68.98,7.76 68.4,7.9 67.92,8.2 C67.44,8.5 67.2,8.88 67.2,9.38 C67.2,10.1 67.76,10.58 68.86,10.84 L71.34,11.42 C72.52,11.7 73.38,12.16 73.96,12.82 C74.52,13.48 74.8,14.24 74.8,15.08 C74.8,16.2 74.34,17.14 73.42,17.9 C72.5,18.66 71.32,19.02 69.86,19.02 Z" id="Path"></path>
                            <path d="M82.16,19.02 C80.26,19.02 78.72,18.38 77.54,17.12 C76.36,15.86 75.76,14.26 75.76,12.34 C75.76,10.52 76.34,8.94 77.48,7.62 C78.64,6.3 80.1,5.64 81.9,5.64 C83.76,5.64 85.24,6.24 86.36,7.46 C87.48,8.68 88.04,10.3 88.04,12.32 L88.02,12.76 L78.12,12.76 C78.18,14.02 78.62,15.02 79.38,15.76 C80.16,16.5 81.06,16.86 82.1,16.86 C83.78,16.86 84.94,16.14 85.54,14.7 L87.64,15.58 C87.24,16.56 86.56,17.36 85.62,18.02 C84.68,18.68 83.52,19.02 82.16,19.02 Z M85.54,10.82 C85.48,10.1 85.16,9.42 84.56,8.78 C83.96,8.14 83.06,7.8 81.86,7.8 C80.98,7.8 80.24,8.08 79.6,8.62 C78.96,9.16 78.52,9.9 78.28,10.82 L85.54,10.82 Z" id="Shape"></path>
                        </g>
                    </g>
                    <g id="Group" transform="translate(35.800000, 0.000000)">
                        <path d="M0.14,8.84 L0.14,0.24 L3.24,0.24 C3.92,0.24 4.5,0.46 4.98,0.9 C5.48,1.34 5.72,1.9 5.72,2.58 C5.72,2.98 5.62,3.34 5.4,3.66 C5.18,3.98 4.9,4.2 4.56,4.36 L4.56,4.4 C4.98,4.54 5.34,4.8 5.6,5.14 C5.88,5.5 6,5.9 6,6.36 C6,7.06 5.74,7.64 5.22,8.12 C4.7,8.58 4.1,8.82 3.4,8.82 L0.14,8.82 L0.14,8.84 Z M1.24,3.94 L3.24,3.94 C3.66,3.94 4,3.8 4.24,3.52 C4.5,3.24 4.62,2.94 4.62,2.62 C4.62,2.3 4.5,2 4.26,1.72 C4.02,1.44 3.7,1.32 3.3,1.32 L1.24,1.32 L1.24,3.94 L1.24,3.94 Z M1.24,7.8 L3.46,7.8 C3.88,7.8 4.22,7.66 4.5,7.36 C4.76,7.06 4.9,6.74 4.9,6.38 C4.9,6.02 4.76,5.7 4.5,5.42 C4.22,5.12 3.88,4.98 3.44,4.98 L1.26,4.98 L1.26,7.8 L1.24,7.8 Z" id="Shape"></path>
                        <path d="M12.5,8.84 L11.44,8.84 L11.44,8.02 L11.4,8.02 C11.24,8.3 10.98,8.54 10.64,8.74 C10.3,8.94 9.94,9.04 9.54,9.04 C8.8,9.04 8.24,8.82 7.86,8.36 C7.48,7.92 7.28,7.32 7.28,6.56 L7.28,2.96 L8.38,2.96 L8.38,6.38 C8.38,7.48 8.86,8.02 9.84,8.02 C10.3,8.02 10.66,7.84 10.96,7.46 C11.24,7.1 11.4,6.66 11.4,6.18 L11.4,2.96 L12.5,2.96 L12.5,8.84 L12.5,8.84 Z" id="Path"></path>
                        <path d="M15.18,1.5 C15.02,1.66 14.84,1.72 14.62,1.72 C14.4,1.72 14.22,1.64 14.06,1.5 C13.9,1.34 13.84,1.16 13.84,0.94 C13.84,0.72 13.92,0.54 14.06,0.38 C14.22,0.22 14.4,0.16 14.62,0.16 C14.84,0.16 15.02,0.24 15.18,0.38 C15.34,0.54 15.4,0.72 15.4,0.94 C15.4,1.16 15.32,1.34 15.18,1.5 Z M15.18,8.84 L14.08,8.84 L14.08,2.96 L15.18,2.96 L15.18,8.84 Z" id="Shape"></path>
                        <polygon id="Path" points="17.84 8.84 16.74 8.84 16.74 0.24 17.84 0.24"></polygon>
                        <path d="M21.78,8.94 C21.16,8.94 20.7,8.78 20.38,8.44 C20.06,8.12 19.9,7.64 19.9,7.04 L19.9,3.98 L18.86,3.98 L18.86,2.98 L19.9,2.98 L19.9,1.18 L21,1.18 L21,2.98 L22.44,2.98 L22.44,3.98 L21,3.98 L21,6.98 C21,7.62 21.26,7.94 21.8,7.94 C22,7.94 22.16,7.9 22.3,7.84 L22.68,8.78 C22.42,8.9 22.12,8.94 21.78,8.94 Z" id="Path"></path>
                        <polygon id="Path" points="33.26 8.84 32.14 8.84 30.68 4.32 29.22 8.84 28.1 8.84 26.2 2.96 27.36 2.96 28.66 7.4 28.68 7.4 30.14 2.96 31.28 2.96 32.74 7.4 32.76 7.4 34.06 2.96 35.18 2.96"></polygon>
                        <path d="M37.22,1.5 C37.06,1.66 36.88,1.72 36.66,1.72 C36.44,1.72 36.26,1.64 36.1,1.5 C35.94,1.34 35.88,1.16 35.88,0.94 C35.88,0.72 35.96,0.54 36.1,0.38 C36.26,0.22 36.44,0.16 36.66,0.16 C36.88,0.16 37.06,0.24 37.22,0.38 C37.38,0.54 37.44,0.72 37.44,0.94 C37.44,1.16 37.36,1.34 37.22,1.5 Z M37.22,8.84 L36.12,8.84 L36.12,2.96 L37.22,2.96 L37.22,8.84 Z" id="Shape"></path>
                        <path d="M41.2,8.94 C40.58,8.94 40.12,8.78 39.78,8.44 C39.46,8.12 39.3,7.64 39.3,7.04 L39.3,3.98 L38.26,3.98 L38.26,2.98 L39.3,2.98 L39.3,1.18 L40.4,1.18 L40.4,2.98 L41.84,2.98 L41.84,3.98 L40.4,3.98 L40.4,6.98 C40.4,7.62 40.66,7.94 41.2,7.94 C41.4,7.94 41.56,7.9 41.7,7.84 L42.08,8.78 C41.84,8.9 41.56,8.94 41.2,8.94 Z" id="Path"></path>
                        <path d="M44.14,0.26 L44.14,2.98 L44.1,3.8 L44.14,3.8 C44.3,3.52 44.56,3.28 44.9,3.08 C45.24,2.88 45.62,2.78 46,2.78 C46.72,2.78 47.28,3 47.66,3.46 C48.04,3.9 48.24,4.5 48.24,5.26 L48.24,8.86 L47.14,8.86 L47.14,5.42 C47.14,4.34 46.66,3.78 45.68,3.78 C45.22,3.78 44.86,3.96 44.56,4.32 C44.28,4.68 44.12,5.1 44.12,5.58 L44.12,8.84 L43.02,8.84 L43.02,0.24 L44.14,0.24 L44.14,0.26 Z" id="Path"></path>
                    </g>
                </g>
            </g>
        </g>
    </g>
</svg>
